X: 38771
T: Stuart's Rant, The
R: reel
M: 4/4
K: Gmajor
d|"G"B>c dg d2 Bd|"Am"cA eA "D7"a/g/f/e/ dc|
"G"B>c d/e/f/g/ d2Bd|"Am"cA/A/ "D7"fd "G"g2g:|d|
"G"B>G GG BG dG|"D7"F>E D/E/F/G/ AD cA|
"G"B>G GG BG dc|B>A "Am"G/A/B/c/ "D7"d2d>c|
"G"BG dG "Em"e/d/c/B/ AG|"D7"FD AD F>G Ac|
"G"B>A Gd g2dc|Bd "D7"A/B/c/d/ "G"BG G||

